X:352
T: "Die Schwestern"
N: Z1032
O: Europa, Mitteleuropa, Deutschland, Niederrhein
R: Romanze, Ballade
M: 3/2
L: 1/8
K: C
G,2 | G,4C2C2B,2C2 | D4_EDC4
DF | _E2D2C2B,2A,2G,2 | C3D_E2D4
D2 | D2C2D_EF2E2D2 | _E2D2C2C2B,2
A,2 | G,2A,2B,2C2D2_E2 | D6C2z2

